X:475
T:Gael, The II
C:Dougie MacLean
B:The Nineties Collection
Z:Nigel Gatherer
R:jig
M:6/8
L:1/8
K:Dm
A,3 F2D | EDC DCG, | A,3 F2D | EDC DCA, |
C3  E2E | G2E EDE  | C3  E2E | G2E EDE  |
F3  F2F | G2F FED  | E2E E2E | G2E EDC  |
D2D D2D | FED A,DD | D2D D2D | FED EDC |]
